src/status/16/fcitx-sunpinyin.svg

<?xml version="1.0" encoding="UTF-8"?>
<svg width="16" height="16" version="1.1" xmlns="http://www.w3.org/2000/svg">
 <defs>
  <style id="current-color-scheme" type="text/css"/>
 </defs>
 <path d="m3 0c-1.662 0-3 1.338-3 3v10c0 1.662 1.338 3 3 3h11c1.108 0 2-0.892 2-2v-4c0-0.01385-0.001676-0.027234-0.001953-0.041016v-6.959c0-1.662-1.338-3-3-3h-9.998zm0 1h9.998c1.108 0 2 0.892 2 2v5.2656c-0.29355-0.16879-0.63379-0.26562-0.99805-0.26562h-2v-3h2v-1h-2.375l1.2754-1.6992-0.80078-0.60156-1.5 2 0.39844 0.30078h-1.9961l0.39844-0.30078-1.5-2-0.80078 0.60156 1.2754 1.6992h-1.375v1h1v3h-1.8828l0.10547-0.050781-0.44531-0.89844-0.77734 0.38867v-2.4395h1v-1h-1v-2h-1v2h-2v1h2v2.9395l-2.2227 1.1113 0.44531 0.89844 1.7773-0.88867v3.9395h-2v1h3v-5.4395l1-0.5v0.93945h1.9609c-0.089 0.9-0.39197 1.6105-0.79297 2.3105-0.497 0.86-1.5098 1.8262-1.5098 1.8262l0.68359 0.72852s1.0341-0.95151 1.6582-2v2.1348c0 0.36522 0.097953 0.70592 0.26758 1h-5.2676c-1.108 0-2-0.892-2-2v-10c0-1.108 0.892-2 2-2zm6 4h2v3h-2v-3zm0.86328 5.8594c0.2069 0 0.4227 0.045087 0.59961 0.12305l-0.11133 0.30469c-0.14992-0.05697-0.33885-0.089843-0.50977-0.089843-0.26087 0-0.4043 0.091079-0.4043 0.25 0 0.41979 1.0957 0.15753 1.0957 0.91016 0 0.3898-0.30771 0.64258-0.81445 0.64258-0.23988 0-0.49686-0.062114-0.71875-0.16406l0.11133-0.3125c0.2069 0.086955 0.43805 0.12891 0.62695 0.12891 0.25487 0 0.38867-0.093171 0.38867-0.24609 0-0.42279-1.0918-0.18975-1.0918-0.90039 0-0.3928 0.33337-0.64648 0.82812-0.64648zm1.0664 0.029297h0.38672v1.2715c0 0.31484 0.17944 0.50391 0.48828 0.50391 0.28186 1e-6 0.44726-0.16736 0.44726-0.44922v-1.3262h0.38086v1.2812c0 0.50075-0.34531 0.83008-0.87305 0.83008-0.51274 0-0.83008-0.3128-0.83008-0.81055v-1.3008zm2.25 0h0.44336l1.0059 1.5469 0.001953-1.5469h0.36914v2.082h-0.43164l-1.0234-1.5547v1.5547h-0.36523v-2.082z" fill="#363636"/>
</svg>

<svg xmlns="http://www.w3.org/2000/svg" width="16" height="16">
    <path fill="#050505" fill-opacity=".7" d="M3 0C1.338 0 0 1.338 0 3v10c0 1.662 1.338 3 3 3H14c1.108 0 2-.892 2-2v-4l-.002-.041V3c0-1.662-1.338-3-3-3H3zm0 1h9.998c1.108 0 2 .892 2 2v5.266A1.995 1.995 0 0 0 14 8h-2V5h2V4h-2.375L12.9 2.3l-.8-.6-1.5 2 .398.3H9.002l.398-.3-1.5-2-.8.6L8.375 4H7v1h1v3H6.117l.106-.05-.446-.9L5 7.44V5h1V4H5V2H4v2H2v1h2v2.94L1.777 9.05l.446.9L4 9.06V13H2v1h3V8.56l1-.5V9h1.96c-.088.9-.391 1.61-.792 2.31-.497.86-1.51 1.827-1.51 1.827l.684.728s1.034-.951 1.658-2V14c0 .365.098.706.267 1H3c-1.108 0-2-.892-2-2V3c0-1.108.892-2 2-2zm6 4h2v3H9V5zm.863 5.86c.207 0 .423.044.6.122l-.111.305a1.506 1.506 0 0 0-.51-.09c-.261 0-.405.091-.405.25 0 .42 1.096.158 1.096.91 0 .39-.308.643-.814.643-.24 0-.497-.062-.719-.164l.111-.313c.207.087.438.13.627.13.255 0 .389-.094.389-.247 0-.422-1.092-.19-1.092-.9 0-.393.334-.647.828-.647zm1.067.029h.386v1.271c0 .315.18.504.489.504.282 0 .447-.167.447-.45V10.89h.38v1.28c0 .502-.345.831-.872.831-.513 0-.83-.313-.83-.81v-1.301zm2.25 0h.443l1.006 1.547.002-1.547H15v2.082h-.432l-1.023-1.555v1.555h-.365v-2.082z"/>
</svg>
